X:1
T:Il Re fa nozz'al
T:Giovanni Animuccia
T:Source : Secondo libro delle Laude spirituali a tre et a quattro voci---Roma---A.Gardano---1583. Editor : André Vierendeels (28/11/17). Notes : Original clefs : C1, C2, C4 Editorial accidentals above the staff Music compiled by Francisco Soto de Langa
T:Il Re fa nozz'al
T:©
T:©
C:Giovanni Animuccia
Z:©
%%score [ 1 2 3 ]
L:1/8
Q:1/4=120
M:4/4
K:F
V:1 treble nm="Soprano" snm="S"
V:2 treble nm="Alto" snm="A"
V:3 treble-8 nm="Tenor" snm="T"
V:1
"^1)" F4 F2 F2 | G2 A2 B4 | A2 c2 c4 | c2 B4 A2 | G4 F4 :: G4 G4- | G2 G2 G2 G2 | G4 G2 G2 | %8
w: Il Re fa|noz- z'al fi-|glio di pu-|ro vin ver-|mi- glio,|et d'un|_ A- gnel- lo'a-|ro- sto che|
w: Ve- ni- te|con la ve-|sta de- gna|di- co tal|fe- sta,|ch'en- tra-|* do'il gran Si-|gno- re non|
 G4 B4 | A2 G2 A4 | G8 | d8 | c4 c2 B2- | B2 B2 A4 | A2 A2 AAAA | A4 A2 A2 | A3 A F2 G2 | E8 | %18
w: mol- to|ben gl'è co-|sto,|O|pri- vi di|_ con- si-|glio che non ve- ni- te|to- sto, che|non ve- ni- te|co-|
w: vi cac-|cias- se fuo-|re,|ve-|den- do fac-|* cia me-|sta O, mal tur- ba- to|co- re, O,|mal tur- ba- to|co-|
 D8 :| %19
w: sto.|
w: re.|
V:2
"^2)""^1)" D4 D2 C2 | D2 F4 E2 | F2 A2 A4 | A2 D4 F2 | E4 F4 :: E4 E4- | E2 E2 E2 E2 | E4 E2 E2 | %8
w: Il Re fa|noz- z'al fi-|glio di pu-|ro vin ver-|mi- glio,|et d'un|_ A- gnel- lo'a-|ro- sto che|
w: Qui- vi lo|spo- so'A- dor-|no mi- ni-|stra cias- cun'|gior- no|et scor-|* re per lo|cie- lo, cin-|
 E4 G4 |"^#" F2 G4 F2 | G8 | B8 | A4 A2 G2- | G2 G2 F4 | F2 F2 FFFF | F4 F2 F2 | F2 E2 D2 D2- | %17
w: mol- to|ben gl'è co-|sto,|O|pri- vi di|_ con- si-|glio che non ve- ni- te|to- sto, che|non ve- ni- te|
w: to d'un|bian- co ve-|lo,|stan|gli'An- gio- li|_ d'in- tor-|no con a- mo- ro- so|ve- lo, con|a- mo- ro- so|
"^#""^#""^-natural" D2 CB, C4 | D8 :| %19
w: _ _ _ co-|sto.|
w: _ _ _ ve-|lo.|
V:3
"^3)""^1)""^4)" B4 B2 A2 | G2 F2 G4 | F2 F2 F4 | F2 G4 F2 | c4 F4 :: c4 c4- | c2 c2 c2 c2 | %7
w: Il Re fa|noz- z'al fi-|glio di pu-|ro vin ver-|mi- glio,|et d'un|_ A- gnel- lo'a-|
w: E- gli con|gra- to vi-|so, qual, fa|se- der as-|si- so,|qual, chia-|* m'à se pian|
 c4 c2 c2 | c4 G4 | d2 _e2 d4 | G8 | B8 | F4 F2 G2- | G2 G2 D4 | D2 d2 dddd | d4 D2 d2 | %16
w: ro- sto che|mol- to|ben gl'è co-|sto,|O|pri- vi di|_ con- si-|glio che non ve- ni- te|to- sto, che|
w: pia- no, qual,|pi- glia|per la ma-|no,|qual,|con un' dol-|* ce Ri-|so, sa- lu- ta di lon-|ta- no, sa-|
 d2 A2 B2 G2 | A8 | D8 :| %19
w: non ve- ni- te|co-|sto.|
w: lu- ta di lon-|ta-|no.|

